account-arrow-down.svg

<svg fill="currentColor" viewBox="0 0 24 24"><path d="M19 18v-4h-2v4h-2l3 3 3-3zM11 4C8.8 4 7 5.8 7 8s1.8 4 4 4 4-1.8 4-4-1.8-4-4-4m0 10c-4.4 0-8 1.8-8 4v2h9.5c-.3-.8-.5-1.6-.5-2.5 0-1.2.3-2.3.9-3.4-.6 0-1.2-.1-1.9-.1"/></svg>

<svg  viewBox="0 0 24 24" fill="currentColor"><path  d="M19 18V14H17V18H15L18 21L21 18H19M11 4C8.8 4 7 5.8 7 8S8.8 12 11 12 15 10.2 15 8 13.2 4 11 4M11 14C6.6 14 3 15.8 3 18V20H12.5C12.2 19.2 12 18.4 12 17.5C12 16.3 12.3 15.2 12.9 14.1C12.3 14.1 11.7 14 11 14"/></svg>
